X:1
T:How kind is the Saviour - Barnby
T:James Gibb editions
%%score [ ( 1 2 ) ( 3 4 ) ]
L:1/8
Q:1/4=90
M:2/2
K:F
V:1 treble nm="Midi_74"
V:2 treble 
V:3 bass nm="Midi_74"
V:4 bass 
V:1
"^Mentone (65. 65. D)""^How kind is the Saviour""^Joseph Barnby\n(1838-96)" C2 | A4 A2 B2 | %2
 (A2 G2) F2 | A2 | c4 c2 d2 | c6 || F2 | B4 B2 A2 | (G2 d2) c2 || F2 | A4 G2 F2 | G6 ||[M:2/2] G2 | %13
 G4 B2 A2 | c4 B2 || B2 | _e4 d2 c2 | d4 || G4 | (c2 d2) c2 B2 | (A2 c2) B2 || D2 | F4 F2 G2 | %23
 F6 || B8 x8 | A8 |] %26
V:2
 C2 | F4 F2 F2 | E4 F2 | F2 | G4 E2 E2 | F6 || F2 | F4 F2 F2 | (F2 E2) F2 || F2 | F4 E2 D2 | E6 || %12
[M:2/2] _E2 | D4 D2 D2 | ^F4 G2 || G2 | G4 F2 _E2 | D4 || E4 | F4 F2 G2 | C2 _E2 D2 || D2 | %22
 C4 C2 E2 | F6 || F8 x8 | F8 |] %26
V:3
 C2 | C4 C2 D2 | (C2 B,2) A,2 | F,2 | C4 B,2 B,2 | A,6 || A,2 | B,4 C2 C2 | (D2 B,2) C2 || C2 | %10
 C4 =B,2 B,2 | C6 ||[M:3/2] C2 | B,4 G,2 ^F,2 | A,4 G,2 || D2 | (C2 B,2) A,2 A,2 | B,4 || C4 | %19
 (C2 B,2) D2 E2 | (F2 F,2) F,2 || B,2 | A,4 A,2 B,2 | A,6 || D8 C8 | x8 |] %26
V:4
 C,2 | F,4 F,2 F,2 | C,4 D,2 | D,2 | E,4 C,2 C,2 | F,4 _E,2- || E,2 | D,4 C,2 C,2 | %8
 B,,2- B,2 A,2 || A,,2 | D,4 G,,2 G,,2 | C,6 ||[M:3/2] C,2 | D,4 D,2 D,2 | G,,4 G,,2 || G,2 | %16
 _E,4 F,2 F,2 | B,,4 || B,4 | (A,2 B,2) G,2 C,2 | F,2- A,,2 B,,2 || B,,2 | C,4 C,2 C,2 | F,6 || %24
 B,,8 F,8 | x8 |] %26

